X:1
T:Avison, 11s.12s
T:Adapted from Charles Avison (1710-1770)
T:Avison, 11s.12s
T:Public Domain
T:Public Domain
C:Adapted from Charles Avison (1710-1770)
Z:Public Domain
%%score ( 1 2 ) 3
L:1/8
M:6/4
K:F
V:1 treble 
V:2 treble 
V:3 bass 
V:1
"^Refrain" x12 || [Fc]3 [Fd] [Fc]2 [Fd]2 [Fc]2 [Af]2 | %2
 [EG]2 [FA]2 [GB]2 [FA]>[EG] [FA]>[GB] [Ac]>[Fd] | [Fc]3 [Fd] [Fc]2 [Fd]2 [Fc]2 [Af]2 | %4
 [EG]2 [FA]2 [GB]2 [FA]6 || [FA]3 [GB] [FA]2 [Gc]2 [Ec]2 [GB]2 | %6
 [FA]3 [GB] [FA]2 [FB]2 [FB]2 [FB]2 | [FA]2 [FA]2 [FA]2 [DG]2 [DG]2 [B,F]2 | %8
 [CE]2 [EB]2 [FA]2 [FA]2 [EG]2 [EG]2 | [FA]2 [Ad]2 [F=B]2 [Ec]2 G2 [E_B]2 | %10
 [FA]2 [Ad]2 [F=B]2 [Ec]2 G2 [E_B]2 | [FA]3 [FA] [FA]2 [FA]3 [F=B] [Fc]2 | [DG]6 [DG]4 [DG]2 | %13
 C8 ||"^Final refrain" [Fc]3 [Fd] [Fc]2 | [Fd]2 [Fc]2 [Af]2 | %16
 [EG]2 [FA]2 [GB]2 [FA]>[EG] [FA]>[GB] [Ac]>[Fd] | [Fc]3 [Fd] [Fc]2 [Fd]2 [Fc]2 [Af]2 | %18
 [EG]2 [FA]2 [GB]2 [FA]4 [FA]2 | [FG]2 [FG]2 [EG]2 | [FA]4 [FA]2 | [FG]2 [FG]2 [EG]2 [CF]4 |] %22
V:2
 x12 || x12 | x12 | x12 | x12 || x12 | x12 | x12 | x12 | x12 | x12 | x12 | x12 | C8 || x6 | x6 | %16
 x12 | x12 | x12 | x6 | x6 | x10 |] %22
V:3
 x12 || [F,A,]3 [F,B,] [F,A,]2 [F,B,]2 [F,A,]2 [F,C]2 | [C,C]2 [C,C]2 [C,C]2 [F,C]4- [F,C]>[F,B,] | %3
 [F,A,]3 [F,B,] [F,A,]2 [F,B,]2 [F,A,]2 [F,C]2 | [C,C]2 [C,C]2 [C,C]2 [F,C]6 || %5
 [F,C]3 [F,C] [F,C]2 [E,C]2 [C,C]2 [E,C]2 | [F,C]3 [F,C] [F,C]2 [D,B,]2 [D,F,]2 [D,B,]2 | %7
 [C,C]2 [C,F,]2 [C,A,]2 [B,,B,]2 [B,,B,]2 [A,,F,]2 | [G,,B,]2 [G,B,]2 [F,C]2 [C,C]4 [C,C]2 | %9
 [F,C]2 [D,F]2 [G,D]2 [C,E]2 [E,C]2 [C,C]2 | [F,C]2 [D,F]2 [G,D]2 [C,E]2 [E,C]2 [C,C]2 | %11
 [F,C]3 [F,C] [F,C]2 [F,F]3 [G,D] [A,C]2 | [G,C]6 [G,=B,]4 [G,,B,]2 | [C,C]8 || %14
 [F,A,]3 [F,B,] [F,A,]2 | [F,B,]2 [F,A,]2 [F,C]2 | [C,C]2 [C,C]2 [C,C]2 [F,C]4- [F,C]>[F,B,] | %17
 [F,A,]3 [F,B,] [F,A,]2 [F,B,]2 [F,A,]2 [F,C]2 | [C,C]2 [C,C]2 [C,C]2 [F,C]4 [F,C]2 | %19
 [D,D]2 [B,,D]2 [C,C]2 | [F,C]4 [F,C]2 | [D,D]2 [B,,D]2 [C,C]2 [F,A,]4 |] %22

